X:1
T:Ave Maria
T:Giuseppe Verdi
T:Ave Maria
T:Scala Enigmatica
C:Giuseppe Verdi
%%score [ 1 2 3 4 ]
L:1/8
Q:1/4=70
M:4/4
K:C
V:1 treble nm="Soprano" snm="S"
V:2 treble nm="Alto" snm="A"
V:3 treble-8 nm="Tenor" snm="T"
V:4 bass nm="Bass" snm="B"
V:1
 c6 _B2- | B2 _A2 _d4- | ^c6 B2 | ^A4 B2 ^d2 | ^d4 ^c4 | ^c4 ^d2 e2 | e2 ^d2 ^f4- | f2 e2 c2 B2 | %8
w: A- ve,|_ Ma- ri-|* a,|gra- ti- a|ple- na,|Do- mi- nus|te- cum, be-|* ne- dic- ta|
 A2 A2 ^A2 A2 | B3 B B4 | ^c4 c2 c2 | ^c4 ^B4- | c4 c2 c2 | c2 c2 c4- | c2 c2 B4 | c8 || z8 | %17
w: tu in mu- li-|e- ri- bus,|et be- ne-|dic- tus|_ fruc- tus|ven- tris tu-|* i, Je-|sus.||
 z4 z2 ^c2- | c2 ^c4 c2 | ^c2 B2 B2 B2 | B2 ^B2 ^c4 | ^^c2 ^d2 e2 e2 | e2 ^d2 B4 | z4 e4- | %24
w: Sanc-|* ta Ma-|ri- a, Ma- ter|De- * i,|o- * ra pro|no- * bis|pro|
 e4 d4- | d4 ^c4 | ^c6 c2 | ^B2 ^c2 ^f2 ^d2 | ^c2 _B2 B2 _A2 | G6 c2 | F4 F4 | F4 E4 |[K:F] z8 | %33
w: _ no-|* bis|pec- ca-|to- * * ri-|bus, nunc et in|ho- ra|mor- tis|nos- trae.||
 z8 | z2 e2 c2 A2 | ^F6 =B2 | =B2 A^G ^c2 c2 | ^c2 =B^A ^d2 d2 | z2 e4 e2 | e2 _e2 d4- | %40
w: |A- ve, Ma-|ri- a,|gra- ti- a ple- na,|Do- mi- nus te- cum,|be- ne-|dic- ta tu|
 d2 c=B B2 d2 | d2 c2 c2 c2 | c2 =B2 B2 ^F2 | ^G2 G2 G2 ^c2 | ^c8 | c8 | B8 | A8 || F8 | _G8 | A8 | %51
w: _ in _ mu- li-|e- ri- bus, et|be- ne- dic- tus|fruc- tus ven- tris|tu-|i,|Je-|sus.|A-|||
 =B8 | ^c8 | ^d8 | e8 | f8 | f8 | e8 | ^d8 | ^c8 | B8 | A8 | _G8 | F8 | z8 |[K:C] F8 | _E8 | _D8 | %68
w: ve,|Ma-|ri-||a,|A-|ve,|A-|ve,|Ma-|ri-||a,||A-|||
 C8 | D6 EF | E8 |] %71
w: men.|A- * *|men.|
V:2
 E8 | F2 F2 _G2 =G2 | ^G4 G2 =G2 | ^F4 F4 | ^E4 E2 E2 | ^F4 F4 | A4 A4 | A6 G2 | ^F2 F2 F2 F2 | %9
w: A-|ve, Ma- ri- a,|gra- ti- a|ple- na,|Do- mi- nus|te- cum,|be- ne-|dic- ta|tu in mu- li-|
 ^F3 F F4 | ^^F4 F2 F2 | ^G4 G4 | _A4 F2 G2 | _A4 G4 | F2 F2 F4- | F2 E2 G4 || C8 | _D8 | E8 | %19
w: e- ri- bus,|et be- ne-|dic- tus|fruc- tus _|ven- tris|tu- i, Je-|* * sus.|A-|||
 ^F8 | ^G8 | ^A8 | B8 | c8 | c8 | B8 | ^A8 | ^G8 | F8 | E8 | _D8 | C8 |[K:F] z8 | z2 C2 A,2 =B,2 | %34
w: ve,|Ma-|ri-||a,|A-|ve,|A-|ve,|Ma-|ri-||a,||A- ve, Ma-|
 C4 E4- | E4 ^D4 | ^E2 E4 ^F2 | ^^F6 ^G2 | A4 A2 A2 | A6 _A2 | G2 G2 G2 G2 | G8 | ^F4 F2 F2 | %43
w: ri- *|* a,|gra- ti- a|ple- na,|Do- mi- nus|te- cum,|be- ne- dic- ta|tu|in mu- li-|
 ^F2 F2 ^E4 | z2 _G2 G2 G2 | _G2 F2 F2 F2 | F2 _E2 _D2 C2 | C4 C4 || C4 C3 C | ^C4 C4 | ^F8- | %51
w: e- ri- bus,|et be- ne-|dic- tus fruc- tus|ven- tris tu- i,|Je- sus.|Sanc- ta Ma-|ri- a,|Ma-|
 F2 ^F2 F2 G2- | G^FEG F4- | F2 ^GA G4- | G4 A4 | A4 B4 | =B2 AG d2 G2 | G6 _G2 | F2 c4 A2 | %59
w: * ter De- i,|_ _ _ _ o-|* * * ra|_ pro|no- bis|pec- * * * ca-|to- ri-|bus, nunc _|
 B2 _A2 _G2 F2 | F2 EF E4- | E4 F4 | z2 B,4 C2 | D8 | z8 |[K:C] _D8 | C8 | _B,4 _A,4 | G,6 C2- | %69
w: et _ in _|ho- ra _ mor-|* tis|nos- *|trae.||A-|||men. A-|
 C4 B,4 | C8 |] %71
w: |men.|
V:3
 G8 | F2 _dc _B2 A2 | ^G2 ^A^B ^c4- | c2 e2 ^d2 B2 | B6 B2 | z2 e2 ^d2 ^c2 | ^f4 ^d4- | %7
w: A-|ve, Ma- * ri- a,|_ _ _ gra-|* * ti- a|ple- na,|Do- mi- nus|te- cum,|
 d2 ee e2 e2 | e2 e2 e2 e2 | e3 ^d d4 | ^d4 d2 d2 | ^d6 e2 | f2 F2 _A2 _B2 | c6 G2 | _A2 A2 G4 | %15
w: _ be- ne- dic- ta|tu in mu- li-|e- ri- bus,|et be- ne-|dic- tus|fruc- * * tus|ven- tris|tu- i, Je-|
 G8 || z2 _B4 _AG | F2 G_A _B2 =A2 | _A2 _Bc _d4 | d4 ^d4 | e2 ^d2 ^c2 ^e2 | ^e2 ^f2 f2 f2 | %22
w: sus.|Sanc- ta Ma-|ri- a, _ Ma- ter|De- * * i,|o- *|ra _ _ pro|no- bis pec- ca-|
 ^F2 B2 ^d4 | z8 | z2 A4 Bc | d2 ^cd e2 ^e2 | ^f2 ^c2 ^d4- | d2 ^c2 ^A2 ^B2 | ^c4 _d4- | %29
w: to- ri- bus,||nunc _ _|_ _ _ et in|ho- ra mor-||tis et|
 d2 c_d c4- | c_B_AG F2 G2 | _A4 G4 |[K:F] F8 | _G8 | A8 | =B8 | ^c8 | ^d8 | e8 | f8 | f8 | e8 | %42
w: _ in _ ho-|* * ra _ mor- tis|nos- trae.|A-|||ve,|Ma-|ri-||a,|A-|ve,|
 ^d8 | ^c8 | B8 | A8 | _G8 | F8 || A4 A3 A | ^A4 A4 | =B2 ^B2 ^c2 ^de | e4 ^d2 =d2 | ^c6 c2- | %53
w: A-|ve,|Ma-|ri-||a,|Sanc- ta Ma-|ri- a,|Ma- * * ter _|De- * *|i, o-|
 c2 ^c4 ^B2 | ^c6 e2 | A2 =B^c d2 d2- | d2 c2 =B2 B2 | c6 B2- | B2 ^GA A2 c2 | f4 _d4- | %60
w: * ra pro|no- *|* * * bis pec-|* ca- to- ri-|bus, nunc|_ _ _ et in|ho- ra|
 d2 c_d c4- | c2 =Bc A2 F2 | B8 | B8 | z8 |[K:C] _A8- | A8 | G4 F4- | F2 E2 G4- | G8 | G8 |] %71
w: _ _ _ mor-|* * * tis _|nos-|trae.||A-|||* men. A-||men.|
V:4
 C,8 | _D,8 | E,8 | ^F,8 | ^G,8 | ^A,8 | B,8 | C8 | C8 | B,8 | ^A,8 | ^G,8 | F,8 | E,8 | _D,8 | %15
w: A-|||ve,|Ma-|ri-||a,|A-|ve,|A-|ve,|Ma-|ri-||
 C,8 || z8 | z8 | z8 | z4 A,4 | ^G,2 ^F,2 ^E,2 B,2 | ^A,2 ^F,2 ^C,2 F,2 | B,,6 B,2- | B,2 A,4 G,2 | %24
w: a,||||Sanc-|ta Ma- ri- a,|Ma- ter De- *|i, o-|* ra pro|
 ^F,8- | F,2 ^F,2 G,2 G,2 | ^F,8- | F,2 ^E,2 ^D,2 ^G,,2 | ^A,,4 z4 | z8 | z4 _B,,4 | C,8 | %32
w: no-|* bis pec- ca-|to-|* * * ri-|bus,||o-|ra|
[K:F] z2 F,2 C,2 D,2 | _E,6 E,2 | E,4 A,2 A,2 | A,6 A,2 | ^G,2 A,=B, A,2 A,2 | ^A,2 =B,^C B,2 B,2 | %38
w: A- ve, Ma-|ri- a,|gra- ti- a|ple- na,|Do- mi- nus te- cum,|be- ne- * dic- ta|
 ^C4 =C4 | =B,4 B,4 | =B,2 CD G,4 | z8 | z8 | z8 | z8 | z8 | z2 C,2 _D,2 _E,2 | F,4 F,4 || %48
w: tu in|mu- li-|e- ri- * bus,||||||A- ve, Ma-|ri- a,|
 F,4 F,3 F, | E,4 E,4 | ^D,2 =D,2 ^C,2 =C,2 | =B,,6 =B,2 | ^A,6 =A,2 | ^G,8- | %54
w: Sanc- ta Ma-|ri- a,|Ma- * * ter|De- i,|o- *|ra|
 G,2 ^A,^B, ^C2 ^C,2 | D,6 E,F, | G,8 | B,2 A,B, C,4- | C,2 C,2 F,4- | F,2 F,2 B,2 _A,2 | %60
w: _ _ _ _ pro|no- * *|bis|pec- ca- * to-|* ri- bus,|_ nunc et in|
 G,6 _G,2 | F,6 F,2 | _E,8 | B,,8 | z8 |[K:C] _D,8 | _A,,8 | _B,,8 | C,8 | G,,8 | C,8 |] %71
w: ho- ra|mor- tis|nos-|trae.||A-|||men.|A-|men.|

